themes/smi/static/img/deislabs-sq.svg

<svg height="111" viewBox="0 0 108 111" width="108" xmlns="http://www.w3.org/2000/svg"><path d="m189.985796 204h-91.97487c-4.4250205 0-8.010926-3.682257-8.010926-8.230333v-94.535965c0-4.5514451 3.5859055-8.233702 8.010926-8.233702h91.97487c4.425021 0 8.014204 3.6822569 8.014204 8.233702v94.535965c0 4.548076-3.589183 8.230333-8.014204 8.230333" fill="#38bb4c" fill-rule="evenodd" transform="translate(-90 -93)"/></svg>

<?xml version="1.0" encoding="UTF-8"?>
<svg width="108px" height="111px" viewBox="0 0 108 111" version="1.1" xmlns="http://www.w3.org/2000/svg" xmlns:xlink="http://www.w3.org/1999/xlink">
    <!-- Generator: Sketch 51.3 (57544) - http://www.bohemiancoding.com/sketch -->
    <title>Fill 23</title>
    <desc>Created with Sketch.</desc>
    <defs></defs>
    <g id="Page-1" stroke="none" stroke-width="1" fill="none" fill-rule="evenodd">
        <g id="Artboard-2" transform="translate(-93.000000, -93.000000)" fill="#38BB4C">
            <g id="Group-2" transform="translate(3.000000, 0.000000)">
                <path d="M189.985796,204 L98.010926,204 C93.5859055,204 90,200.317743 90,195.769667 L90,101.233702 C90,96.6822569 93.5859055,93 98.010926,93 L189.985796,93 C194.410817,93 198,96.6822569 198,101.233702 L198,195.769667 C198,200.317743 194.410817,204 189.985796,204" id="Fill-23" style="mix-blend-mode: multiply;"></path>
            </g>
        </g>
    </g>
</svg>
